flaticon/stationery/calendar-2.svg

<svg xmlns="http://www.w3.org/2000/svg" width="32" height="32" viewBox="0 0 24 24">
    <path d="M 19.808594 1.160156 L 17.207031 1.160156 L 17.207031 0 L 16.164062 0 L 16.164062 1.160156 L 12.523438 1.160156 L 12.523438 0 L 11.476562 0 L 11.476562 1.160156 L 7.835938 1.160156 L 7.835938 0 L 6.792969 0 L 6.792969 1.160156 L 4.191406 1.160156 C 3.902344 1.160156 3.667969 1.394531 3.667969 1.679688 L 3.667969 23.476562 C 3.667969 23.765625 3.902344 24 4.191406 24 L 19.808594 24 C 20.097656 24 20.332031 23.765625 20.332031 23.476562 L 20.332031 1.679688 C 20.332031 1.394531 20.097656 1.160156 19.808594 1.160156 Z M 6.792969 2.203125 L 6.792969 3.363281 L 7.835938 3.363281 L 7.835938 2.203125 L 11.476562 2.203125 L 11.476562 3.363281 L 12.523438 3.363281 L 12.523438 2.203125 L 16.164062 2.203125 L 16.164062 3.363281 L 17.207031 3.363281 L 17.207031 2.203125 L 19.289062 2.203125 L 19.289062 5.871094 L 4.710938 5.871094 L 4.710938 2.203125 Z M 4.710938 22.957031 L 4.710938 6.914062 L 19.289062 6.914062 L 19.289062 22.957031 Z M 4.710938 22.957031"/>
</svg>

<svg xmlns="http://www.w3.org/2000/svg" width="32" height="32" viewBox="0 0 24 24">
    <path d="M19.809 1.16h-2.602V0h-1.043v1.16h-3.64V0h-1.047v1.16H7.836V0H6.793v1.16H4.191a.523.523 0 0 0-.523.52v21.797c0 .289.234.523.523.523H19.81c.289 0 .523-.234.523-.523V1.68a.523.523 0 0 0-.523-.52zM6.793 2.203v1.16h1.043v-1.16h3.64v1.16h1.047v-1.16h3.641v1.16h1.043v-1.16h2.082v3.668H4.711V2.203zM4.711 22.957V6.914h14.578v16.043zm0 0"/>
</svg>
